X:1
T:Let No One Fail to See Him
T:Let No One Fail to See Him
T:Howard E. Smith
T:K. B. Brown, 1908
T:Public Domain Courtesy of the Cyber Hymnal™
C:Howard E. Smith
Z:Public Domain
Z:Courtesy of the Cyber Hymnal™
%%score 1 ( 2 3 )
L:1/8
Q:1/4=105
M:4/4
K:G
V:1 treble 
V:2 bass 
V:3 bass 
V:1
 [B,D]2 | [DG][DF][DG][DA] [GB]2 [FA]2 | [EG]6 [DF]2 | [CE]3 [DF] [EG]2 [CE]2 | %4
w: 1.~The|Son of Man is pass- ing|by, Let|no one fail to|
w: 2.~The|light di- vine il- lumes His|way, The|dark- ness flees be-|
w: 3.~God’s|truth is ring- ing in your|ears, Why|hold it in de-|
w: 4.~Your|soul is not your own, but|His, With|His own blood He|
 [CE]2 [B,D]4 [B,D]2 | [DG][DF][DG][DA] [GB]2 [Fc]2 | [Gd]6 [GB]2 | [EA]3 [EG] [EF]2 [EG]2 | %8
w: greet Him; For-|sake all pet- ty, bas- er|things, Go|forth to- day to|
w: fore Him; Your|path He’ll make with glo- ry|bright, Go|forth, ac- cept, a-|
w: ri- sion? While|Christ is near, His voice you|hear, Make|now the great de-|
w: bought you; Why|rob your God, who thro’ the|years With|love di- vine has|
 [GB]2 [FA]4 ||"^Refrain" [GB]2 | [Gd] [Ge]2 [Gd] [GB]2 [DG]2 | [EA] [EB]2 [EA] [CE]3 [EG] | %12
w: meet Him.||||
w: dore Him.||||
w: ci- sion.||||
w: sought you?||||
 [DF]2 [CE]2 [CD]2 [Ec]2 | [DB]2 [Gd]4 [GB]2 | [Gd] [Ge]2 [Gd] [GB]2 [DG]2 | %15
w: |||
w: |||
w: |||
w: |||
 [EA] [EB]2 [EA] [CE]3 [EG] | [DF]2 [CE]2 [CD]2 [DB]2 | [CA]2 [B,G]4 |] %18
w: |||
w: |||
w: |||
w: |||
V:2
 G,2 | [G,B,][G,A,][G,B,][G,C] [G,D]2 [D,C]2 | [E,B,]6 [B,,G,]2 | [C,G,]3 [C,G,] [C,C]2 [C,G,]2 | %4
w: ~|~ ~ ~ ~ ~ ~|~ ~|~ ~ ~ ~|
 [G,,G,]2 [G,,G,]4 [G,,G,]2 | [G,B,][G,A,][G,B,][G,C] [G,D]2 [A,D]2 | [B,D]6 [G,D]2 | %7
w: ~ ~ ~|~ ~ ~ ~ ~ ~|~ ~|
 [A,^C]3 [A,C] [A,C]2 [A,C]2 | [D,D]2 [D,D]4 || [G,D]2 | [G,B,] [G,C]2 [G,B,] [G,D]2 [G,B,]2 | %11
w: ~ ~ ~ ~|~ ~|He’s|pass- ing to- day, He’s|
 [C,C] [C,C]2 [C,C] [C,G,]3 [C,C] | [D,A,]2 [D,G,]2 [D,F,]2 [D,F,]2 | G,2 [G,B,]4 [G,D]2 | %14
w: pass- ing this way, Let|no one fail to|see Him! The|
 [G,B,] [G,C]2 [G,B,] [G,D]2 [G,B,]2 | [C,C] [C,C]2 [C,C] [C,G,]3 [C,C] | %16
w: sin- ner who calls, whom|sin now ap- palls, Will|
 [D,A,]2 [D,G,]2 [D,F,]2 [D,G,]2 | [D,F,]2 [G,,G,]4 |] %18
w: find God’s love can|free him.|
V:3
 G,2 | x8 | x8 | x8 | x8 | x8 | x8 | x8 | x6 || x2 | x8 | x8 | x8 | G,2 x6 | x8 | x8 | x8 | x6 |] %18

